static/img/svg/Management.svg

<?xml version="1.0" ?><!DOCTYPE svg  PUBLIC '-//W3C//DTD SVG 1.1//EN'  'http://www.w3.org/Graphics/SVG/1.1/DTD/svg11.dtd'><svg enable-background="new 0 0 512 512" height="512px" id="Management" version="1.1" viewBox="0 0 512 512" width="512px" xml:space="preserve" xmlns="http://www.w3.org/2000/svg" xmlns:xlink="http://www.w3.org/1999/xlink"><linearGradient gradientUnits="userSpaceOnUse" id="SVGID_1_" x1="75.3599" x2="335.1046" y1="385.873" y2="126.1284"><stop offset="0" style="stop-color:#00FFFF"/><stop offset="1" style="stop-color:#FF7BAC"/></linearGradient><path d="M357.619,224.09c-4.023-19.31-11.627-37.303-22.082-53.264l18.188-26.078l-37.242-37.24  l-26.078,18.186c-15.959-10.453-33.953-18.058-53.263-22.081l-5.577-31.279h-52.667l-5.577,31.279  c-19.31,4.023-37.302,11.628-53.263,22.081L93.98,107.508l-37.241,37.24l18.187,26.078c-10.454,15.961-18.058,33.954-22.081,53.264  l-31.279,5.577v52.667l31.279,5.576c4.023,19.31,11.627,37.303,22.081,53.264l-18.187,26.078l37.241,37.24l26.078-18.186  c15.96,10.453,33.953,18.057,53.263,22.08l5.577,31.28h52.667l5.577-31.28c19.31-4.023,37.304-11.627,53.263-22.08l26.078,18.186  l37.242-37.24l-18.188-26.078c10.455-15.961,18.059-33.954,22.082-53.264l31.279-5.576v-52.667L357.619,224.09z M205.231,323.397  c-37.223,0-67.398-30.175-67.398-67.397s30.175-67.397,67.398-67.397s67.397,30.175,67.397,67.397S242.454,323.397,205.231,323.397z  " fill="url(#SVGID_1_)"/><linearGradient gradientUnits="userSpaceOnUse" id="SVGID_2_" x1="128.7593" x2="281.7053" y1="332.4736" y2="179.5276"><stop offset="0" style="stop-color:#FF7BAC"/><stop offset="1" style="stop-color:#00FFFF"/></linearGradient><path d="M205.231,147.851c-59.729,0-108.149,48.42-108.149,108.149c0,59.729,48.42,108.148,108.149,108.148  c59.729,0,108.149-48.42,108.149-108.148C313.381,196.271,264.961,147.851,205.231,147.851z M205.231,323.397  c-37.223,0-67.398-30.175-67.398-67.397s30.175-67.397,67.398-67.397s67.397,30.175,67.397,67.397S242.454,323.397,205.231,323.397z  " fill="url(#SVGID_2_)"/><path d="M470.705,334.779c-4.252-6.385-9.604-11.776-15.689-16.021l2.783-12.047l-18.836-8.041l-6.775,10.343  c-7.275-1.459-14.869-1.596-22.422-0.248l-6.547-10.48l-19.006,7.635l2.521,12.096c-6.385,4.25-11.775,9.603-16.02,15.688  l-12.047-2.783l-8.041,18.837l10.342,6.775c-1.459,7.274-1.596,14.869-0.248,22.421l-10.479,6.546l7.633,19.006l12.096-2.521  c4.252,6.385,9.604,11.776,15.689,16.021l-2.783,12.047l18.836,8.041l6.775-10.343c7.275,1.46,14.871,1.595,22.422,0.249  l6.547,10.479l19.006-7.633l-2.521-12.097c6.385-4.251,11.775-9.603,16.02-15.688l12.047,2.783l8.041-18.837l-10.342-6.774  c1.459-7.275,1.596-14.871,0.248-22.422l10.48-6.547l-7.635-19.006L470.705,334.779z M430.107,392.704  c-13.434,5.396-28.695-1.12-34.092-14.553c-5.395-13.433,1.121-28.696,14.553-34.091c13.434-5.396,28.695,1.12,34.092,14.553  C450.055,372.046,443.539,387.309,430.107,392.704z" fill="#3F5EAB"/></svg>

<svg width="512" height="512" viewBox="0 0 512 512" fill="none" xmlns="http://www.w3.org/2000/svg">
<path d="M357.619 224.09C353.596 204.78 345.992 186.787 335.537 170.826L353.725 144.748L316.483 107.508L290.405 125.694C274.446 115.241 256.452 107.636 237.142 103.613L231.565 72.334H178.898L173.321 103.613C154.011 107.636 136.019 115.241 120.058 125.694L93.98 107.508L56.739 144.748L74.926 170.826C64.472 186.787 56.868 204.78 52.845 224.09L21.566 229.667V282.334L52.845 287.91C56.868 307.22 64.472 325.213 74.926 341.174L56.739 367.252L93.98 404.492L120.058 386.306C136.018 396.759 154.011 404.363 173.321 408.386L178.898 439.666H231.565L237.142 408.386C256.452 404.363 274.446 396.759 290.405 386.306L316.483 404.492L353.725 367.252L335.537 341.174C345.992 325.213 353.596 307.22 357.619 287.91L388.898 282.334V229.667L357.619 224.09ZM205.231 323.397C168.008 323.397 137.833 293.222 137.833 256C137.833 218.778 168.008 188.603 205.231 188.603C242.454 188.603 272.628 218.778 272.628 256C272.628 293.222 242.454 323.397 205.231 323.397Z" fill="url(#paint0_linear)"/>
<path d="M205.231 147.851C145.502 147.851 97.082 196.271 97.082 256C97.082 315.729 145.502 364.148 205.231 364.148C264.96 364.148 313.38 315.728 313.38 256C313.381 196.271 264.961 147.851 205.231 147.851ZM205.231 323.397C168.008 323.397 137.833 293.222 137.833 256C137.833 218.778 168.008 188.603 205.231 188.603C242.454 188.603 272.628 218.778 272.628 256C272.628 293.222 242.454 323.397 205.231 323.397Z" fill="url(#paint1_linear)"/>
<path d="M470.705 334.779C466.453 328.394 461.101 323.003 455.016 318.758L457.799 306.711L438.963 298.67L432.188 309.013C424.913 307.554 417.319 307.417 409.766 308.765L403.219 298.285L384.213 305.92L386.734 318.016C380.349 322.266 374.959 327.619 370.714 333.704L358.667 330.921L350.626 349.758L360.968 356.533C359.509 363.807 359.372 371.402 360.72 378.954L350.241 385.5L357.874 404.506L369.97 401.985C374.222 408.37 379.574 413.761 385.659 418.006L382.876 430.053L401.712 438.094L408.487 427.751C415.762 429.211 423.358 429.346 430.909 428L437.456 438.479L456.462 430.846L453.941 418.749C460.326 414.498 465.716 409.146 469.961 403.061L482.008 405.844L490.049 387.007L479.707 380.233C481.166 372.958 481.303 365.362 479.955 357.811L490.435 351.264L482.8 332.258L470.705 334.779ZM430.107 392.704C416.673 398.1 401.412 391.584 396.015 378.151C390.62 364.718 397.136 349.455 410.568 344.06C424.002 338.664 439.263 345.18 444.66 358.613C450.055 372.046 443.539 387.309 430.107 392.704Z" fill="#8D56A0"/>
<defs>
<linearGradient id="paint0_linear" x1="75.3599" y1="385.873" x2="335.105" y2="126.128" gradientUnits="userSpaceOnUse">
<stop stop-color="#9E09A2"/>
<stop offset="1" stop-color="#FF7BAC"/>
</linearGradient>
<linearGradient id="paint1_linear" x1="128.759" y1="332.474" x2="281.705" y2="179.528" gradientUnits="userSpaceOnUse">
<stop stop-color="#FF7BAC"/>
<stop offset="1" stop-color="#9E09A2"/>
</linearGradient>
</defs>
</svg>
